!!!OTL: Der 12. Psalm: Salvum me fac domine
!!!ARE: Europa, Mitteleuropa, Deutschland
!!!SCT: A0627
!!!YEM: Copyright 1995, estate of Helmut Schaffrath.
**kern
*ICvox
*Ivox
!! Mixed meters:  4/1; 6/1
*M6/1
*k[f#c#g#]
*A:
{0a
=1
1b-
1a
1gn
1dd
=2
1dd
1b-
1a
2r}
{2a
=3
1b-
1a
1gn
1ccn
=4
0b-
0a
0gn
=5
*M4/1
0r}
{0a
=6
1b-
1a
1gn
1dd
=7
1dd
1b-
1a
2r}
{2a
=8
1b-
1a
1gn
1ccn
=9
*M6/1
0b-
0a
1.gn}
{2gn
=10
*M4/1
1a
1fn
1e
1d
=11
1fn
1gn
1a
2r}
{2fn
=12
1gn
1b-
1a
1b-
=13
1gn
1fn
1gn
2r}
{2gn
=14
1dd
1b-
1ccn
1dd
=15
*M6/1
0ccn
0b-
0a
=16
0gg//#
2gg>>#}
==
!!!AGN: Romanze, Ballade, Lied, religioeses Lied
!! Erfurter Enchiridion I. 1524 No. 13.
!!!ONB: ESAC (Essen Associative Code) Database: ALTDEU
!!!AMT: irregular
!!!AIN: vox
!!!EED: Helmut Schaffrath
!!!EEV: 1.0
*-
